X:90
T:House On The Hill  (Clog)
R:clog
C:Bruce Osborne - Nov. 2002
Z:abc by bosborne@kos.net
M:4/4
L:1/8
K:Amaj
E>D|C>EA,>C E>CE>A|c>Bc>f e>cB>A|G>BE>G B>EG>B|A>GA>B c2 E>D|\
C>EA,>C E>CE>A|c>Bc>f e>cB>A|G>BE>G B>EG>B|A>c (3BAG A2:|
|:c>d|e>cA>F (3EFE C>D|E>Ac>f e2 B>c|d>BG>B E>GB>G|A>c (3fef e2 c>d|\
e>cA>F (3EFE C>D|E>Ac>f e2 B>c|d>BG>B E>GB>G|A>c (3BAG A2:|
